X:1
T:Christ Is King
T:De Loss Smith
T:Christ Is King
T:Public Domain
T:Public Domain
T:Public Domain
T:Public Domain
T:Public Domain
C:De Loss Smith
Z:Public Domain
%%score ( 1 2 ) ( 3 4 )
L:1/8
M:6/4
K:Eb
V:1 treble 
V:2 treble 
V:3 bass 
V:4 bass 
V:1
 (z2 [G,B,E]2 [G,B,E]2) (z2 [G,=B,F]2 [G,B,F]2) | z2 [G,CE]2 [G,CE]2 [G,CE]2 [A,A]2 [=A,=A]2 | %2
w: |* * * friends, sing,|
w: |* * * ci- fied,|
w: |* * * His feet,|
 [B,B]2 [Cc]2 [B,B]2 (z2 [A,B,D]2) [A,B,DF]2 | z2 [G,B,]2 [G,B,]2 [G,B,]2 DEFG | %4
w: * the faith * that’s||
w: * He suf- * fered||
w: * old Ol- * iv-||
 (z2 [EGc]2 [EGc]2) (z2 [DFG=B]2) [EAc]2 | (z2 [B,E]2 [B,E]2) (z2 [G,B,E]2 [G,B,E]2) | %6
w: * * * to||
w: * * * for||
w: * * * they||
 z2 [=A,CE]2 [A,CE]2 (z2 [A,CE]2) [A,CEc]2 | [DFBd]8 [Ac]2 [GB]2 | %8
w: * * * thro’|in Gal- i-|
w: * * * the|sin’s vic- to-|
w: * * * iots|took Christ a-|
 (z2 [G,B,E]2 [G,B,E]2) (z2 [G,=B,F]2 [G,B,F]2) | (z2 [G,CE]2 [G,CE]2 [G,CE]2) [A,A]2 [=A,=A]2 | %10
w: |* * * brought peace|
w: |* * * the sky|
w: |* * * the an-|
 [B,B]2 [Cc]2 [B,B]2 (z2 [A,B,D]2) [A,B,DF]2 | z2 [G,B,]2 [G,B,]2 [G,B,]2 DEGB | %12
w: * earth and * good||
w: * dark and * the||
w: * came and * to||
 (z2 [EA]2 [EA]2) ([CE^F]2 [CEF]2) [CEFc]2 | ([EGe]2 [B,GB]2) [B,G]2 E2 [Ec]2 [EB]2 | %14
w: * * the * sons|men, * Go tell it to|
w: * * veil * rent|twain, * Rocks rent, and an-|
w: * * dis- * ci-|said, * “He’ll come, and earth|
 (z2 [G,B,E]2 [G,B,E]2) (z2 [A,B,D]2 [A,B,D]2) | z2 [G,B,]2 [G,B,]2 [G,B,E]4 z2 || %16
w: ||
w: ||
w: ||
"^Refrain" [Ge]2 [Gd]2 [Gc]2 [GB]2 [Gc]2 G2 | (E2 D2 C2) (B,2 C2) D2 | E2 F2 G2 [GB]2 [Gc]2 [Ge]2 | %19
w: * king reigns a- gain. I|so * * hap- * py|Cap- tiv- i- ty’s cap- tor|
w: * He lived a- gain. *|||
w: * yield up their dead.” *|||
 [Ad]6- [Ad]4 z2 | [DF]2 [EG]2 [FA]2 [Ac]2 [Ad]2 [FA]2 | [Ac]6 [Ac]6 | %22
w: is *|He; An- gels re- joice when|a soul’s|
w: |||
w: |||
 [DF]2 [EG]2 [DA]2 [Ac]2 [Ad]2 [Ac]2 | (z2 [G,B,E]2 [G,B,E]2 z2 [G,B,E]2 [G,B,E]2) | %24
w: saved, Some day we like Him||
w: ||
w: ||
 [Ge]2 [Gd]2 [Gc]2 [GB]2 [Gc]2 G2 | (E2 D2 C2) (B,2 C2 E2) | %26
w: * be; Sor- row and joy|the * * same * *|
w: ||
w: ||
 [FG=B]2 [FG=A]2 [FGB]2 [=B,DG]2 [DFA]2 [DFGB]2 | ([EG]2 [EG]2 [EG]2 [EG]2 [EG]2 [EG]2) | %28
w: ley of sha- dows shall sing;|Death * * * * *|
w: ||
w: ||
 [E^F=Ae]2 [EFAd]2 [EFAe]2 [EFc]2 [EFd]2 [EFe]2 | [EGBe]2 [EGBe]2 [EGBe]2 G2 c2 B2 | %30
w: its life, its door o- pens|in Heav- en e- ter- nal-|
w: ||
w: ||
 [Fc]2 [Fd]2 [F=Ae]2 [_Ae]4 [Geg]2 | (G2- [EG-Be]2 [EG-Be]2 [EGBeg]4) z2 |] %32
w: ly, Christ is king. *||
w: ||
w: ||
V:2
 G6 G6 | G8 x4 | x6 G4 x2 | (E6- E4) x2 | e6 d4 x2 | B6 G6 | G6 F4 x2 | x12 | G6 G6 | G8 x4 | %10
w: 1.~Come, *|of|so|dear *|me, Re-|vealed *|God’s Son,||lee; He|on|
w: 2.~Cru- *|thus|and|bled *|me, Death|and *|grave won||ry; Then|grew|
w: 3.~At *|on|et’s|hill, *|say, Cloud|char- *|halt- ed,||way; Then|gels|
 x6 G4 x2 | (E6- E4) x2 | (e6 d4) x2 | x6 E2 x4 | G6 F6 | E6- x6 || x10 G2 | B6 B4 D2 | x12 | x12 | %20
w: will|to *|of *|the|world, *|her|am|in Je- sus,|||
w: tem-|ple *|in *|gels|came, *|for|||||
w: won-|dering *|ples *|and|sea *|shall|||||
 x12 | x12 | x12 | G6- G4 x2 | x10 G2 | B6 B6 | x12 | c12 | x12 | x12 | x12 | [eg]6 x6 |] %32
w: |||shall *|have|Lord, Val-||has|||||
w: ||||||||||||
w: ||||||||||||
V:3
 [E,,E,]6 [D,,D,]6 | [C,,C,]6- [C,,C,]4 [_C,,_C,]2 | [B,,,B,,]8 [C,,C,]2 [D,,D,]2 | %3
 ([E,,E,]2 B,,2 G,,2 E,,4) z2 | [C,C]6 [G,,G,]4 [A,,A,]2 | [G,,G,]6 [E,,E,]6 | [C,,C,]6 [F,,F,]6 | %7
 ([B,,,B,,]2 [D,,D,]2 [F,,F,]2 [B,,B,]2) z4 | [E,,E,]6 [D,,D,]6 | [C,,C,]6- [C,,C,]4 [_C,,_C,]2 | %10
 [B,,,B,,]8 [C,,C,]2 [D,,D,]2 | [E,,E,]6 [_D,,_D,]4 z2 | [C,,C,]6 [=A,,,=A,,]6 | %13
 [B,,,B,,]6 [C,G,]2 [A,,A,]2 [G,,G,]2 | B,,6 (B,,2 C,2 D,2) | (E,2 B,,2 G,,2 E,,4) z2 || %16
 E,2 [G,B,E]2 [G,B,E]2 B,,2 [G,B,E]2 [G,B,E]2 | %17
 [E,,E,]2 [D,,D,]2 [C,,C,]2 [B,,,B,,]2 [C,,C,]2 [D,,D,]2 | %18
 E,2 [G,B,E]2 [G,B,E]2 B,,2 [G,B,E]2 [G,B,E]2 | (F,2 [A,B,D]2 [A,B,D]2 B,,2 [A,B,D]2 [A,B,D]2) | %20
 F,2 [A,B,D]2 [A,B,D]2 B,,2 [A,B,D]2 [A,B,D]2 | %21
 ([F,,F,]2 [G,,G,]2 [A,,A,]2) ([C,C]2 [D,D]2 [C,C]2) | %22
 [A,,A,]2 [G,,G,]2 [F,,F,]2 B,,2 [A,B,D]2 [A,B,D]2 | ([E,,E,]6 E,,4) z2 | %24
 E,2 [G,B,E]2 [G,B,E]2 B,,2 [G,B,E]2 [G,B,E]2 | %25
 ([E,,E,]2 [D,,D,]2 [C,,C,]2) ([B,,,B,,]2 [C,,C,]2 [E,,E,]2) | %26
 z2 [F,G,=B,]2 [F,G,B,]2 z2 [F,G,B,]2 [F,G,B,]2 | (z2 [E,G,C]2 [E,G,C]2) z2 ([E,G,C]2 [E,G,C]2) | %28
 [_C,=A,]2 [C,A,]2 [C,A,]2 [=A,,A,]6 | [B,,B,]6 [G,,G,]2 [C,C]2 [B,,B,]2 | %30
 [F,=A,]2 [F,B,]2 [F,C]2 [B,,D]4 [E,B,]2 | (z2 B,,2 G,,2 [E,,E,B,]4) z2 |] %32
V:4
 x12 | x12 | x12 | x12 | x12 | x12 | x12 | x12 | x12 | x12 | x12 | x12 | x12 | x12 | x12 | x12 || %16
 x12 | x12 | x12 | x12 | x12 | x12 | x12 | x12 | x12 | x12 | D,6 G,,6 | C,12 | x12 | x12 | x12 | %31
 [E,B,]6- x6 |] %32

